dist/img/c__tel.svg

<svg width="18" height="30" viewBox="0 0 18 30" fill="none" xmlns="http://www.w3.org/2000/svg">
<path d="M15.4011 0H2.02629C0.912 0 0 0.911143 0 2.02629V27.9729C0 29.088 0.912 30 2.02629 30H15.4011C16.5154 30 17.4274 29.0897 17.4274 27.9737V2.02629C17.4274 0.911143 16.5154 0 15.4011 0ZM6.57429 1.46057H10.8531C10.9886 1.46057 11.0983 1.57029 11.0983 1.70657C11.0983 1.842 10.9886 1.95171 10.8531 1.95171H6.57429C6.43886 1.95171 6.32914 1.842 6.32914 1.70657C6.32914 1.57029 6.43886 1.46057 6.57429 1.46057ZM8.71371 28.9869C8.154 28.9869 7.70057 28.5334 7.70057 27.9729C7.70057 27.4123 8.154 26.9597 8.71371 26.9597C9.27343 26.9597 9.72686 27.4123 9.72686 27.9729C9.72686 28.5334 9.27343 28.9869 8.71371 28.9869ZM16.0174 26.25H1.41V3.21343H16.0174V26.25Z" fill="white"/>
</svg>

<svg width="18" height="30" viewBox="0 0 18 30" fill="none" xmlns="http://www.w3.org/2000/svg"><path d="M15.401 0H2.026A2.032 2.032 0 0 0 0 2.026v25.947C0 29.088.912 30 2.026 30h13.375c1.114 0 2.026-.91 2.026-2.026V2.026A2.032 2.032 0 0 0 15.401 0zM6.574 1.46h4.28a.245.245 0 0 1 0 .492h-4.28a.245.245 0 1 1 0-.491zm2.14 27.527a1.013 1.013 0 1 1 0-2.026 1.013 1.013 0 0 1 0 2.026zm7.303-2.737H1.41V3.213h14.607V26.25z" fill="#fff"/></svg>
